assets/Keycap 4/Flat/keycap_4_flat.svg

<svg width="32" height="32" viewBox="0 0 32 32" fill="none" xmlns="http://www.w3.org/2000/svg">
<path d="M2 6C2 3.79086 3.79086 2 6 2H26C28.2091 2 30 3.79086 30 6V26C30 28.2091 28.2091 30 26 30H6C3.79086 30 2 28.2091 2 26V6Z" fill="#00A6ED"/>
<path d="M14.6131 7.80203C15.5509 8.03583 16.1215 8.9856 15.8877 9.92339L14.5958 15.1051H16.4951V14C16.4951 13.0335 17.2786 12.25 18.2451 12.25C19.2116 12.25 19.9951 13.0335 19.9951 14V15.1403C20.7933 15.3029 21.3939 16.0088 21.3939 16.8551C21.3939 17.7013 20.7933 18.4072 19.9951 18.5698V22.3795C19.9951 23.346 19.2116 24.1295 18.2451 24.1295C17.2786 24.1295 16.4951 23.346 16.4951 22.3795V18.6051H12.356C11.8173 18.6051 11.3086 18.357 10.977 17.9325C10.6453 17.508 10.5276 16.9544 10.658 16.4317L12.4917 9.0767C12.7255 8.13891 13.6753 7.56822 14.6131 7.80203Z" fill="white"/>
</svg>

<svg xmlns="http://www.w3.org/2000/svg" width="32" height="32" fill="none"><path fill="#00A6ED" d="M2 6a4 4 0 0 1 4-4h20a4 4 0 0 1 4 4v20a4 4 0 0 1-4 4H6a4 4 0 0 1-4-4V6Z"/><path fill="#fff" d="M14.613 7.802a1.75 1.75 0 0 1 1.275 2.121l-1.292 5.182h1.9V14a1.75 1.75 0 1 1 3.5 0v1.14a1.75 1.75 0 0 1 0 3.43v3.81a1.75 1.75 0 1 1-3.5 0v-3.775h-4.14a1.75 1.75 0 0 1-1.698-2.173l1.834-7.355a1.75 1.75 0 0 1 2.121-1.275Z"/></svg>
